source/img/icon-feature-ball.svg

<svg height="35" viewBox="0 0 35 35" width="35" xmlns="http://www.w3.org/2000/svg"><g fill="#63d1bb" fill-rule="evenodd" transform=""><path d="m.286 14.069c-.382 2.073-.384 4.211.008 6.301l4.121-3.21z"/><path d="m24.403 1.585c-4.783-2.208-10.444-2.144-15.254.407l7.513 5.625z"/><path d="m33.901 13.175-4.811 3.748 4.936 3.695c.496-2.445.463-4.988-.125-7.443z"/><path d="m9.209 32.414c4.844 2.534 10.724 2.65 15.73.113l-8.096-6.062z"/><path d="m7.914 14.433-6.233-4.666c-.32.669-.595 1.356-.825 2.056l5.308 3.974z"/><path d="m18.593 25.102 8.336 6.242c.277-.191.551-.391.82-.601.318-.248.625-.505.92-.771l-8.326-6.234z"/><path d="m11.413 11.707-7.411-5.549c-.462.551-.885 1.127-1.269 1.723l6.931 5.189z"/><path d="m22.093 22.375 8.092 6.059c.471-.544.904-1.112 1.297-1.701l-7.639-5.721z"/><path d="m14.913 8.98-7.717-5.777c-.193.138-.384.279-.573.426-.396.309-.774.632-1.136.968l7.676 5.747z"/><path d="m25.592 19.649 6.972 5.221c.33-.662.615-1.341.855-2.033l-6.077-4.55z"/><path d="m26.448 2.706-25.568 19.92c.233.698.513 1.386.839 2.059l26.52-20.663c-.572-.481-1.171-.92-1.791-1.316z"/><path d="m30.743 6.624c-.301-.386-.614-.754-.939-1.106l-27.018 21.049c.262.402.542.797.843 1.183.142.183.288.359.436.534l27.09-21.108c-.134-.186-.269-.37-.412-.552z"/><path d="m32.298 8.999-26.746 20.839c.544.501 1.114.962 1.708 1.382l25.962-20.228c-.263-.678-.571-1.344-.924-1.993z"/></g></svg>

<?xml version="1.0" encoding="UTF-8"?>
<svg width="35px" height="35px" viewBox="0 0 35 35" version="1.1" xmlns="http://www.w3.org/2000/svg" xmlns:xlink="http://www.w3.org/1999/xlink">
    <!-- Generator: Sketch 52.2 (67145) - http://www.bohemiancoding.com/sketch -->
    <title>icon-feature-ball</title>
    <desc>Created with Sketch.</desc>
    <g id="Mishka-Mobile" stroke="none" stroke-width="1" fill="none" fill-rule="evenodd">
        <g id="Mishka-Index-Mobile" transform="translate(-33.000000, -2171.000000)" fill="#63D1BB">
            <g id="about" transform="translate(0.000000, 1736.000000)">
                <g id="icon-feature-ball" transform="translate(33.000000, 435.000000)">
                    <path d="M0.286,14.069 C-0.096,16.142 -0.098,18.28 0.294,20.37 L4.415,17.16 L0.286,14.069 Z" id="Shape"></path>
                    <path d="M24.403,1.585 C19.62,-0.623 13.959,-0.559 9.149,1.992 L16.662,7.617 L24.403,1.585 Z" id="Shape"></path>
                    <path d="M33.901,13.175 L29.09,16.923 L34.026,20.618 C34.522,18.173 34.489,15.63 33.901,13.175 Z" id="Shape"></path>
                    <path d="M9.209,32.414 C14.053,34.948 19.933,35.064 24.939,32.527 L16.843,26.465 L9.209,32.414 Z" id="Shape"></path>
                    <path d="M7.914,14.433 L1.681,9.767 C1.361,10.436 1.086,11.123 0.856,11.823 L6.164,15.797 L7.914,14.433 Z" id="Shape"></path>
                    <path d="M18.593,25.102 L26.929,31.344 C27.206,31.153 27.48,30.953 27.749,30.743 C28.067,30.495 28.374,30.238 28.669,29.972 L20.343,23.738 L18.593,25.102 Z" id="Shape"></path>
                    <path d="M11.413,11.707 L4.002,6.158 C3.54,6.709 3.117,7.285 2.733,7.881 L9.664,13.07 L11.413,11.707 Z" id="Shape"></path>
                    <path d="M22.093,22.375 L30.185,28.434 C30.656,27.89 31.089,27.322 31.482,26.733 L23.843,21.012 L22.093,22.375 Z" id="Shape"></path>
                    <path d="M14.913,8.98 L7.196,3.203 C7.003,3.341 6.812,3.482 6.623,3.629 C6.227,3.938 5.849,4.261 5.487,4.597 L13.163,10.344 L14.913,8.98 Z" id="Shape"></path>
                    <path d="M25.592,19.649 L32.564,24.87 C32.894,24.208 33.179,23.529 33.419,22.837 L27.342,18.287 L25.592,19.649 Z" id="Shape"></path>
                    <path d="M26.448,2.706 L0.88,22.626 C1.113,23.324 1.393,24.012 1.719,24.685 L28.239,4.022 C27.667,3.541 27.068,3.102 26.448,2.706 Z" id="Shape"></path>
                    <path d="M30.743,6.624 C30.442,6.238 30.129,5.87 29.804,5.518 L2.786,26.567 C3.048,26.969 3.328,27.364 3.629,27.75 C3.771,27.933 3.917,28.109 4.065,28.284 L31.155,7.176 C31.021,6.99 30.886,6.806 30.743,6.624 Z" id="Shape"></path>
                    <path d="M32.298,8.999 L5.552,29.838 C6.096,30.339 6.666,30.8 7.26,31.22 L33.222,10.992 C32.959,10.314 32.651,9.648 32.298,8.999 Z" id="Shape"></path>
                </g>
            </g>
        </g>
    </g>
</svg>
